build/images/icons/lk.svg

<svg width="99" height="36" viewBox="0 0 99 36" fill="none" xmlns="http://www.w3.org/2000/svg">
<path d="M46.6584 8.82498V16.5639H46.1038V9.34091H42.0925L41.9893 12.1785C41.9742 13.0446 41.8836 13.9078 41.7184 14.7581C41.642 15.2793 41.4333 15.7722 41.1122 16.1898C40.9855 16.3423 40.8253 16.4636 40.6441 16.5441C40.4629 16.6246 40.2656 16.6623 40.0674 16.6542C39.8807 16.6541 39.6946 16.6325 39.5128 16.5897L39.5773 16.0609C39.7013 16.079 39.8273 16.079 39.9514 16.0609C40.1091 16.0656 40.2657 16.0316 40.4073 15.9619C40.549 15.8922 40.6714 15.7889 40.7639 15.661C41.0324 15.2787 41.2009 14.8353 41.2541 14.3712C41.3777 13.6202 41.4509 12.8619 41.4733 12.1011L41.5765 8.7347L46.6584 8.82498Z" fill="white"/>
<path d="M50.1538 8.82498H50.7084V15.6223L55.9967 8.82498H56.4868V16.5639H55.9193V9.79235L50.6439 16.5768H50.1538V8.82498Z" fill="white"/>
<path d="M64.9997 8.82498V16.5639H64.4321V13.2491C63.6242 13.6278 62.7448 13.8301 61.8525 13.8424C61.1131 13.8852 60.3835 13.6558 59.8017 13.1975C59.5533 12.9751 59.3582 12.6996 59.2309 12.3914C59.1036 12.0833 59.0474 11.7504 59.0665 11.4175V8.83788H59.634V11.4175C59.6185 11.6874 59.6637 11.9572 59.7664 12.2073C59.8691 12.4573 60.0266 12.6811 60.2273 12.8621C60.704 13.234 61.3008 13.4176 61.9041 13.378C62.7965 13.3669 63.6762 13.1646 64.4837 12.7847V8.91527L64.9997 8.82498Z" fill="white"/>
<path d="M74.8409 8.82498V16.5639H74.2862V12.9008H69.127V16.5897H68.5594V8.85078H69.127V12.3849H74.2862V8.82498H74.8409Z" fill="white"/>
<path d="M83.4699 12.2688C83.7187 12.4958 83.913 12.7761 84.0381 13.0888C84.1632 13.4016 84.2159 13.7386 84.1922 14.0745C84.2152 14.4216 84.1586 14.7694 84.0267 15.0913C83.8948 15.4132 83.6911 15.7007 83.4312 15.9319C82.8038 16.3981 82.0314 16.6266 81.2514 16.5768H78.2848V8.83788H78.8394V11.611H81.419C82.159 11.58 82.886 11.8132 83.4699 12.2688ZM83.0184 15.5836C83.224 15.3953 83.3841 15.1628 83.4869 14.9037C83.5897 14.6445 83.6324 14.3655 83.6117 14.0874C83.6117 12.7976 82.825 12.1398 81.2514 12.1398H78.8394V16.0996H81.2901C81.9095 16.1412 82.5232 15.958 83.0184 15.5836ZM85.5981 8.82498H86.1656V16.5639H85.5981V8.82498Z" fill="white"/>
<path d="M89.6611 8.82497H90.2287V15.6223L95.4782 8.82497H95.9683V16.5639H95.4782V9.79234L90.2029 16.5768H89.6998L89.6611 8.82497ZM91.6088 7.8834C91.4541 7.76869 91.3289 7.61877 91.2437 7.44606C91.1584 7.27335 91.1156 7.08282 91.1186 6.89024H91.6088C91.6031 7.0318 91.6318 7.17262 91.6925 7.30066C91.7531 7.42869 91.8439 7.54013 91.957 7.62544C92.2272 7.80625 92.5479 7.89658 92.8728 7.8834C93.1936 7.89653 93.5102 7.80609 93.7757 7.62544C93.8881 7.53866 93.9791 7.42726 94.0417 7.29981C94.1043 7.17236 94.1368 7.03224 94.1368 6.89024H94.5882C94.5938 7.08188 94.5534 7.27206 94.4704 7.44486C94.3874 7.61766 94.2641 7.76804 94.111 7.8834C93.7409 8.11861 93.3114 8.24353 92.8728 8.24353C92.4342 8.24353 92.0047 8.11861 91.6346 7.8834H91.6088Z" fill="white"/>
<path d="M43.2275 26.173H41.3701V29.849H40.8026V22.1101H41.3701V25.67H43.2404L46.0264 22.1101H46.6455L43.6789 25.8764L46.8519 29.849H46.1812L43.2275 26.173Z" fill="white"/>
<path d="M53.7525 27.6692H49.2639L48.2837 29.849H47.6646L51.2373 22.1101H51.792L55.3648 29.849H54.7586L53.7525 27.6692ZM53.5461 27.192L51.5082 22.7292L49.4832 27.192H53.5461Z" fill="white"/>
<path d="M57.6606 22.1101H63.2327V22.6002H58.2282V25.3991H60.8078C61.5405 25.3493 62.2695 25.5395 62.8844 25.9409C63.1223 26.1396 63.3103 26.3913 63.4335 26.6757C63.5567 26.9602 63.6116 27.2695 63.5938 27.5789C63.6117 27.9009 63.5518 28.2225 63.4194 28.5166C63.287 28.8106 63.0858 29.0686 62.8328 29.2686C62.1899 29.6968 61.4237 29.9008 60.653 29.849H57.6606V22.1101ZM60.653 29.3718C61.2735 29.4153 61.8919 29.2618 62.4201 28.9332C62.6116 28.7784 62.7648 28.5815 62.8677 28.3578C62.9706 28.1341 63.0205 27.8896 63.0134 27.6434C63.0134 26.4955 62.2266 25.9151 60.653 25.9151H58.2282V29.4234L60.653 29.3718Z" fill="white"/>
<path d="M66.3668 22.1101H66.9214V28.9075L72.2613 22.1101H72.7514V29.849H72.1323V23.0646L66.857 29.849H66.3668V22.1101Z" fill="white"/>
<path d="M82.4897 22.1101V29.849H81.935V26.173H76.7758V29.849H76.1309V22.1101H76.6984V25.67H81.8577V22.1101H82.4897Z" fill="white"/>
<path d="M91.3248 29.346V29.849H85.985V22.1101H91.1443V22.6131H86.5525V25.67H90.6799V26.173H86.5525V29.346H91.3248Z" fill="white"/>
<path d="M98.7672 22.6131H95.9683V29.849H95.4781V22.6131H92.6147V22.1101H98.7672V22.6131Z" fill="white"/>
<path d="M0.0315317 27.3726C0.147615 27.2952 0.237903 27.2178 0.353986 27.1533C0.715136 26.9469 1.08918 26.7406 1.46323 26.56L3.70751 25.4636L5.30689 24.7155L6.90627 23.9803L8.46695 23.2967L9.13765 23.013C9.45079 22.879 9.80418 22.8744 10.1207 23.0001C10.4373 23.1257 10.6913 23.3715 10.8273 23.6837C11.0853 24.277 11.3303 24.8703 11.5754 25.4636L12.13 26.7534C12.3106 27.1533 12.4783 27.5531 12.6589 27.9401L13.3167 29.3589C13.5488 29.849 13.7939 30.3262 14.0261 30.8035C14.0451 30.8519 14.0666 30.8992 14.0906 30.9454V31.0099C14.1147 31.013 14.1392 31.01 14.1618 31.0009C14.1844 30.9919 14.2043 30.9772 14.2195 30.9583C14.2258 30.9285 14.2258 30.8977 14.2195 30.868C14.2195 30.1715 14.284 29.475 14.3098 28.7785C14.3356 28.082 14.3098 27.6692 14.4001 27.1017C14.4001 26.8824 14.4001 26.6503 14.4001 26.431C14.4267 26.3515 14.4267 26.2655 14.4001 26.1859L13.9358 25.1799L13.278 23.8127C13.1361 23.5031 12.9684 23.1935 12.8265 22.884C12.77 22.7554 12.7268 22.6215 12.6976 22.4842C12.6794 22.3115 12.7303 22.1388 12.839 22.0035C12.9477 21.8682 13.1055 21.7813 13.278 21.7619H13.5746C14.9418 21.7619 16.309 21.7619 17.6891 21.7619C17.8661 21.7465 18.0439 21.7776 18.2051 21.8521C18.339 21.9186 18.4457 22.0296 18.5069 22.166C18.5681 22.3025 18.5799 22.456 18.5404 22.6002C18.5138 22.6975 18.4793 22.7924 18.4372 22.884L17.4699 24.8832L16.8895 26.173C16.8277 26.2971 16.7968 26.4343 16.7992 26.5729C16.7992 27.1662 16.8637 27.7595 16.8895 28.3528C16.8895 29.217 16.9797 30.0812 17.0184 30.9325C17.0124 30.9752 17.0124 31.0187 17.0184 31.0614C17.0237 31.0723 17.032 31.0815 17.0422 31.088C17.0525 31.0944 17.0644 31.0978 17.0765 31.0978C17.0886 31.0978 17.1005 31.0944 17.1107 31.088C17.121 31.0815 17.1292 31.0723 17.1345 31.0614C17.4054 30.481 17.6891 29.9135 17.96 29.3331C18.2309 28.7527 18.5791 28.0433 18.8758 27.321L19.8431 25.1025C20.0237 24.6897 20.1914 24.2641 20.372 23.8127C20.4906 23.507 20.7212 23.2579 21.0169 23.1162C21.1721 23.0427 21.3417 23.0046 21.5135 23.0046C21.6852 23.0046 21.8548 23.0427 22.01 23.1162C22.5647 23.3354 23.1064 23.5805 23.6481 23.8256L24.8734 24.3673L26.4857 25.1154L28.1238 25.8764L29.8392 26.7277C30.2398 26.9172 30.6275 27.1326 31.0001 27.3726L31.1807 27.5015C31.1807 27.566 31.1807 27.6305 31.0904 27.6821L30.6905 28.2238C29.9539 29.1923 29.1244 30.0865 28.2141 30.8938C27.8053 31.2673 27.3746 31.6162 26.9242 31.9385L25.9827 32.6092L25.2991 33.0349C25.0282 33.1896 24.7574 33.3573 24.4736 33.4992L23.5707 33.9377L23.2483 34.1054L22.7581 34.3118L21.9842 34.6084L21.3909 34.8148C21.1717 34.8793 20.9524 34.9567 20.7202 35.0083L20.1914 35.1373H20.0882C20.0882 35.1373 20.0882 35.1373 19.985 35.1373L19.3014 35.2663L18.4114 35.4339H18.2825L17.7278 35.5113H17.1474C16.9433 35.5172 16.7403 35.5431 16.5412 35.5887C16.331 35.6084 16.1194 35.6084 15.9092 35.5887H15.5094C15.1599 35.5994 14.8101 35.5778 14.4646 35.5242C14.2125 35.485 13.9585 35.4592 13.7036 35.4468C13.5876 35.4532 13.4714 35.4532 13.3554 35.4468H13.0329L12.5944 35.3823H12.5428C12.2461 35.3823 11.9495 35.292 11.6528 35.2276C11.4483 35.1911 11.246 35.1437 11.0466 35.0857C10.8871 35.0291 10.7231 34.986 10.5565 34.9567L10.2211 34.8277L9.69227 34.6729L9.24084 34.5311L8.96997 34.415C8.69911 34.3118 8.42825 34.2215 8.17029 34.1054C7.91232 33.9893 7.53828 33.8088 7.21582 33.6411C6.92439 33.5103 6.64021 33.3639 6.36454 33.2025C6.10658 33.0607 5.86151 32.9059 5.61645 32.7511L4.98444 32.3384L4.19765 31.7837C3.7978 31.4742 3.41086 31.1646 3.03681 30.8293C2.66276 30.4939 2.18553 30.0167 1.74699 29.5395C1.34973 29.1303 0.975128 28.6997 0.624848 28.2496C0.444274 28.0175 0.263699 27.7724 0.0960226 27.5273C-0.0716538 27.2823 0.0315317 27.4371 0.0315317 27.3726Z" fill="white"/>
<path d="M15.7286 0.00262054C16.2421 -0.00383883 16.7554 0.0306657 17.2634 0.105806C17.7364 0.158643 18.203 0.25801 18.6564 0.402464C18.9918 0.518548 19.3271 0.621733 19.6367 0.763613C20.3262 1.07544 20.9516 1.51283 21.4811 2.05343C22.1938 2.7722 22.7129 3.65963 22.9902 4.63307C23.169 5.2216 23.2303 5.83952 23.1708 6.45171C23.1063 6.98054 23.0289 7.49647 22.9515 8.02529C22.8742 8.55412 22.8355 8.82498 22.771 9.21193C22.7783 9.29776 22.7783 9.38406 22.771 9.46989C22.7539 9.51018 22.7509 9.55507 22.7627 9.59724C22.7744 9.63941 22.8 9.67636 22.8355 9.70206C22.9985 9.8376 23.1328 10.0045 23.2302 10.1928C23.3277 10.3811 23.3864 10.587 23.403 10.7984C23.4545 11.0928 23.4545 11.394 23.403 11.6884C23.3665 12.0127 23.2973 12.3324 23.1966 12.6428C23.1382 12.8376 23.039 13.0178 22.9056 13.1712C22.7721 13.3247 22.6075 13.4479 22.4227 13.5328C22.2781 13.6019 22.1399 13.684 22.01 13.7779C21.8199 13.9568 21.7047 14.201 21.6875 14.4615C21.6019 14.8474 21.4766 15.2235 21.3135 15.5836C20.899 16.4578 20.3006 17.2321 19.5593 17.8537C19.0915 18.2745 18.566 18.6263 17.9986 18.8985C17.4956 19.1305 16.961 19.287 16.4122 19.3628C16.0948 19.3952 15.775 19.3952 15.4577 19.3628C14.8579 19.3335 14.2662 19.2117 13.7035 19.0016C12.5855 18.5381 11.6043 17.7967 10.853 16.8477C10.4519 16.3591 10.1299 15.8107 9.89858 15.2225C9.79162 14.9599 9.70957 14.6878 9.65351 14.4099C9.60443 14.3318 9.54831 14.2584 9.48583 14.1906C9.45461 14.083 9.40038 13.9834 9.32689 13.8988C9.2534 13.8141 9.1624 13.7465 9.06019 13.7005L8.85382 13.5844C8.6781 13.5142 8.51998 13.4061 8.3907 13.2679C8.26141 13.1297 8.16412 12.9647 8.10573 12.7847C7.86556 12.2094 7.75122 11.5893 7.77038 10.9661C7.77953 10.6067 7.90135 10.2593 8.11863 9.97292C8.18533 9.89764 8.25872 9.82857 8.3379 9.76655C8.37134 9.74201 8.39661 9.70796 8.41041 9.66885C8.42422 9.62974 8.42591 9.58737 8.41528 9.54728C8.41528 9.09584 8.2734 8.6573 8.19602 8.25746C8.11863 7.85762 8.07993 7.04503 8.01544 6.45171C7.97023 6.08335 7.97023 5.71084 8.01544 5.34247C8.08605 4.90286 8.19834 4.47098 8.35079 4.05265C8.63544 3.28777 9.07449 2.58968 9.64061 2.00184C10.1576 1.51164 10.7554 1.11454 11.4077 0.828104C11.9643 0.569491 12.5484 0.374776 13.1489 0.247686C13.9964 0.0660803 14.8621 -0.0161627 15.7286 0.00262054Z" fill="white"/>
</svg>

<svg width="99" height="36" fill="none" xmlns="http://www.w3.org/2000/svg"><path d="M46.658 8.825v7.739h-.554V9.34h-4.011l-.104 2.838a14.908 14.908 0 01-.27 2.58 3.082 3.082 0 01-.607 1.43 1.29 1.29 0 01-1.045.465 2.41 2.41 0 01-.554-.064l.064-.53c.124.019.25.019.374 0a.967.967 0 00.813-.399c.268-.382.437-.826.49-1.29.124-.75.197-1.51.22-2.27l.103-3.366 5.081.09zm3.496 0h.554v6.797l5.289-6.797h.49v7.739h-.568V9.792l-5.275 6.785h-.49V8.825zm14.846 0v7.739h-.568v-3.315a6.282 6.282 0 01-2.58.593 3.031 3.031 0 01-2.05-.645 2.219 2.219 0 01-.736-1.78v-2.58h.568v2.58a1.806 1.806 0 00.593 1.445 2.464 2.464 0 001.677.516 6.242 6.242 0 002.58-.593v-3.87l.516-.09zm9.84 0v7.739h-.554V12.9h-5.159v3.689h-.568V8.85h.568v3.535h5.16v-3.56h.554zm8.63 3.444a2.233 2.233 0 01.722 1.806 2.284 2.284 0 01-.76 1.857c-.628.466-1.4.695-2.18.645h-2.967v-7.74h.554v2.774h2.58a3.122 3.122 0 012.05.658zm-.452 3.315a1.844 1.844 0 00.594-1.497c0-1.29-.787-1.947-2.36-1.947h-2.413v3.96h2.451a2.58 2.58 0 001.728-.516zm2.58-6.759h.568v7.739h-.568V8.825zm4.063 0h.568v6.797l5.25-6.797h.49v7.739h-.49V9.792l-5.276 6.785H89.7l-.039-7.752zm1.948-.942a1.212 1.212 0 01-.49-.993h.49a.876.876 0 00.348.735c.27.181.59.272.916.258.32.014.637-.077.903-.258a.929.929 0 00.36-.735h.452a1.2 1.2 0 01-.477.993 2.308 2.308 0 01-2.476 0h-.026zm-48.382 18.29H41.37v3.676h-.567V22.11h.567v3.56h1.87l2.786-3.56h.62l-2.967 3.766 3.173 3.973h-.67l-2.955-3.676zm10.525 1.497h-4.488l-.98 2.179h-.62l3.573-7.739h.555l3.573 7.739h-.606l-1.007-2.18zm-.206-.478l-2.038-4.463-2.025 4.463h4.063zm4.114-5.082h5.573v.49h-5.005v2.8h2.58a3.38 3.38 0 012.076.54 1.986 1.986 0 01.71 1.639 2.012 2.012 0 01-.761 1.69 3.508 3.508 0 01-2.18.58h-2.992V22.11zm2.993 7.262c.62.043 1.239-.11 1.767-.439a1.6 1.6 0 00.593-1.29c0-1.148-.786-1.728-2.36-1.728h-2.425v3.508l2.425-.051zm5.714-7.262h.554v6.797l5.34-6.797h.49v7.739h-.619v-6.784l-5.275 6.784h-.49V22.11zm16.123 0v7.739h-.555v-3.676h-5.16v3.676h-.644V22.11h.567v3.56h5.16v-3.56h.632zm8.835 7.236v.503h-5.34V22.11h5.16v.503h-4.593v3.057h4.128v.503h-4.128v3.173h4.773zm7.442-6.733h-2.799v7.236h-.49v-7.236h-2.863v-.503h6.152v.503zM.032 27.373c.116-.078.206-.155.322-.22.361-.206.735-.412 1.11-.593l2.244-1.096 1.599-.748 1.6-.736 1.56-.683.67-.284a1.29 1.29 0 011.69.67c.258.594.503 1.187.748 1.78l.555 1.29c.18.4.348.8.529 1.187l.658 1.419c.232.49.477.967.71 1.444.018.049.04.096.064.142v.065a.142.142 0 00.129-.052.218.218 0 000-.09c0-.696.064-1.393.09-2.09.026-.696 0-1.109.09-1.676v-.671a.386.386 0 000-.245l-.464-1.006-.658-1.367c-.142-.31-.31-.62-.452-.929a2.058 2.058 0 01-.128-.4.657.657 0 01.58-.722h4.411a1.02 1.02 0 01.516.09.646.646 0 01.335.748 1.844 1.844 0 01-.103.284l-.967 2-.58 1.289a.864.864 0 00-.09.4c0 .593.064 1.186.09 1.78 0 .864.09 1.728.128 2.58a.464.464 0 000 .128c.006.011.014.02.024.027a.065.065 0 00.069 0 .065.065 0 00.023-.027c.271-.58.555-1.148.826-1.728.27-.58.62-1.29.916-2.012l.967-2.219c.18-.412.348-.838.529-1.29a1.29 1.29 0 01.645-.696 1.16 1.16 0 01.993 0c.555.22 1.096.465 1.638.71l1.225.541 1.613.748 1.638.761 1.715.852c.4.19.789.405 1.161.645l.18.128c0 .065 0 .13-.09.181l-.4.542a18.698 18.698 0 01-2.476 2.67c-.409.373-.84.722-1.29 1.045l-.941.67-.684.426c-.27.155-.542.322-.825.464l-.903.439-.323.167-.49.207-.774.296-.593.207c-.22.064-.439.142-.67.193l-.53.13h-.206l-.684.128-.89.168h-.129l-.554.077h-.58a3.119 3.119 0 00-.607.078c-.21.02-.422.02-.632 0h-.4c-.35.01-.699-.011-1.044-.065a7.243 7.243 0 00-.761-.077 3.16 3.16 0 01-.349 0h-.322l-.439-.065h-.051c-.297 0-.593-.09-.89-.154a5.851 5.851 0 01-.606-.142 3.04 3.04 0 00-.49-.13l-.336-.128-.529-.155-.451-.142-.271-.116c-.27-.103-.542-.194-.8-.31a20.58 20.58 0 01-.954-.464 8.887 8.887 0 01-.851-.438 14.303 14.303 0 01-.749-.452l-.632-.413-.786-.554c-.4-.31-.787-.62-1.161-.955a20.225 20.225 0 01-1.29-1.29 15.654 15.654 0 01-1.651-2.012c-.168-.245-.064-.09-.064-.154zM15.729.003a9.66 9.66 0 011.534.103c.473.053.94.152 1.393.296.336.117.671.22.98.362a6.1 6.1 0 011.845 1.29 5.997 5.997 0 011.51 2.58c.178.588.24 1.206.18 1.818-.065.529-.142 1.044-.22 1.573-.077.53-.116.8-.18 1.187.007.086.007.172 0 .258a.193.193 0 00.064.232 1.586 1.586 0 01.568 1.096c.052.295.052.596 0 .89a4.85 4.85 0 01-.206.955 1.432 1.432 0 01-.774.89 2.67 2.67 0 00-.413.245c-.19.179-.305.423-.323.683-.085.386-.21.762-.373 1.123a6.72 6.72 0 01-1.755 2.27 6.63 6.63 0 01-1.56 1.044 5.626 5.626 0 01-1.587.465 4.699 4.699 0 01-.954 0 5.828 5.828 0 01-1.755-.361 7.107 7.107 0 01-2.85-2.154 6.052 6.052 0 01-.954-1.625 4.528 4.528 0 01-.245-.813 1.506 1.506 0 00-.168-.22.774.774 0 00-.426-.49l-.206-.116a1.29 1.29 0 01-.748-.8 4.372 4.372 0 01-.336-1.818c.01-.36.131-.707.349-.993.066-.075.14-.144.219-.206a.206.206 0 00.077-.22c0-.451-.142-.89-.219-1.29-.077-.4-.116-1.212-.18-1.805a4.553 4.553 0 010-1.11c.07-.44.182-.871.335-1.29a5.946 5.946 0 011.29-2.05A6.179 6.179 0 0111.408.828a8.124 8.124 0 011.74-.58 11.158 11.158 0 012.58-.245z" fill="#fff"/></svg>
